src/svg/featured/adobe.svg

<svg fill="none" height="75" viewBox="0 0 65 75" width="65" xmlns="http://www.w3.org/2000/svg"><g fill="#fff"><path d="m19.9348-.00036621h-19.9348v47.69826621z"/><path d="m53.895.00000982h-19.9234l19.9234 47.69829018z"/><g clip-rule="evenodd" fill-rule="evenodd"><path d="m60.546 6.1308h-.7573v-4.20736c.0541-.00772.1083-.01589.1633-.02417.3019-.04546.6279-.09455 1.0984-.09455.6731 0 1.0929.1369 1.3621.34005.2351.1847.3696.4676.3696.87389 0 .53852-.3535.88974-.8053 1.00846v.03195c.3673.06858.6022.40395.6869 1.02898.1005.65698.1847.90584.2532 1.04275h-.7736c-.1005-.13691-.187-.52242-.2714-1.0747-.0821-.50865-.3674-.70946-.89-.70946h-.4359zm.0002-2.37281h.4518c.5569 0 1.0131-.1847 1.0131-.67309 0-.36732-.2694-.70737-.9768-.70737-.2213 0-.372 0-.4883.01611z"/><path d="m61.2513.157471c2.0831 0 3.7488 1.683879 3.7488 3.769369 0 2.11979-1.6657 3.80133-3.7647 3.80133-2.1016 0-3.8013-1.68154-3.8013-3.80133 0-2.08549 1.6997-3.769369 3.8013-3.769369zm-.0159.638793c-1.6657 0-3.0119 1.396306-3.0119 3.146426s1.3462 3.14643 3.0278 3.14643c1.6654.01818 2.9957-1.39631 2.9957-3.14643s-1.3303-3.146426-2.9957-3.146426z"/><path d="m4.30069 70.0701-.82141 4.1549h-3.034464l3.785214-17.2859h3.71898l3.43839 17.2859h-3.05028l-.80323-4.1549zm2.93861-2.4396-.63204-3.7439c-.11761-.704-.25656-1.6664-.38771-2.5749-.06988-.484-.13756-.9528-.19861-1.3589h-.06858c-.04467.2847-.09363.6019-.14487.934-.16058 1.0407-.34362 2.227-.48717 3.0089l-.6801 3.7348z"/><path d="m21.4086 70.6403v-14.16h-3.1139v6.3134h-.0525c-.3538-.7692-1.0565-1.301-2.1427-1.301-2.0764 0-3.9813 2.1268-3.9813 6.5004 0 3.5894 1.2776 6.4321 3.8535 6.4321 1.1753 0 2.1585-.7549 2.6103-1.6428h.0639l.1756 1.44h2.69c-.0457-1.0792-.1029-2.4599-.1029-3.5821zm-3.1602-4.8831c.0457.2466.0457.516.0457.7464v3.3059c0 .3172-.0366.5887-.1073.7916-.2899 1.0178-.8237 1.2552-1.2869 1.2552-1.0131 0-1.6701-1.3805-1.6701-3.8057 0-2.1107.4608-3.9154 1.7135-3.9154.7302 0 1.1843.7687 1.3051 1.622z"/><path d="m27.836 74.4255c-2.8703 0-4.6705-2.3045-4.6705-6.4295 0-4.5019 2.3112-6.503 4.7435-6.503 2.8316 0 4.6067 2.4167 4.6067 6.43 0 5.1566-2.7812 6.5025-4.6545 6.5025zm.0593-2.3889c1.1887 0 1.483-2.2406 1.483-4.0957 0-1.7636-.2943-4.0616-1.5353-4.0616-1.3144 0-1.5906 2.298-1.5906 4.0616 0 2.1289.3468 4.0957 1.6153 4.0957z"/><path d="m37.3709 56.4803h-3.1145v14.16c0 1.1222-.0589 2.544-.1047 3.5821h2.6742l.1733-1.499h.0657c.6525 1.2202 1.3758 1.7018 2.4619 1.7018 2.2795 0 4.0388-2.3611 4.0388-6.7718 0-3.4909-1.1797-6.1607-3.5276-6.1607-1.1864 0-2.0034.55-2.617 1.513h-.0501zm.1237 14.0706c-.0663-.1959-.1234-.4881-.1234-.8006v-3.4979c0-.2328.0569-.5702.1163-.7869.1712-.6889.6687-1.3303 1.2594-1.3303 1.1911 0 1.7047 1.5306 1.7047 3.753 0 2.4414-.486 3.9681-1.6909 3.9681-.4242 0-.9536-.2577-1.2661-1.3054z"/><path d="m47.8896 68.9681c.0366 2.2655 1.2277 3.0028 2.7061 3.0028.9375 0 1.7407-.2081 2.3341-.4313l.4198 2.2406c-.8261.3556-2.1016.5793-3.3247.5793-3.3425 0-5.168-2.2842-5.168-6.1855 0-4.1869 2.1175-6.7015 4.8828-6.7015 2.6718 0 4.1525 2.2224 4.1525 5.8502 0 .8305-.0343 1.2983-.0891 1.6631zm3.1396-2.2021c.0161-1.759-.4998-2.9916-1.4877-2.9916-1.1272 0-1.6065 1.6501-1.6405 2.9916z"/></g><path d="m26.9556 17.5755-8.7138 20.5261h9.2931l3.7969 9.5941h8.3165z"/></g></svg>

<svg width="65" height="75" viewBox="0 0 65 75" fill="none" xmlns="http://www.w3.org/2000/svg">
<path d="M19.9348 -0.000366211H0V47.6979L19.9348 -0.000366211Z" fill="white"/>
<path d="M53.895 9.82138e-06H33.9716L53.895 47.6983V9.82138e-06Z" fill="white"/>
<path fill-rule="evenodd" clip-rule="evenodd" d="M60.546 6.1308H59.7887V1.92344C59.8428 1.91572 59.897 1.90755 59.952 1.89927C60.2539 1.85381 60.5799 1.80472 61.0504 1.80472C61.7235 1.80472 62.1433 1.94162 62.4125 2.14477C62.6476 2.32947 62.7821 2.61237 62.7821 3.01866C62.7821 3.55718 62.4286 3.9084 61.9768 4.02712V4.05907C62.3441 4.12765 62.579 4.46302 62.6637 5.08805C62.7642 5.74503 62.8484 5.99389 62.9169 6.1308H62.1433C62.0428 5.99389 61.9563 5.60838 61.8719 5.0561C61.7898 4.54745 61.5045 4.34664 60.9819 4.34664H60.546V6.1308ZM60.5462 3.75799H60.998C61.5549 3.75799 62.0111 3.57329 62.0111 3.0849C62.0111 2.71758 61.7417 2.37753 61.0343 2.37753C60.813 2.37753 60.6623 2.37753 60.546 2.39364L60.5462 3.75799Z" fill="white"/>
<path fill-rule="evenodd" clip-rule="evenodd" d="M61.2513 0.157471C63.3344 0.157471 65.0001 1.84135 65.0001 3.92684C65.0001 6.04663 63.3344 7.72817 61.2354 7.72817C59.1338 7.72817 57.4341 6.04663 57.4341 3.92684C57.4341 1.84135 59.1338 0.157471 61.2354 0.157471H61.2513ZM61.2354 0.796264C59.5697 0.796264 58.2235 2.19257 58.2235 3.94269C58.2235 5.69281 59.5697 7.08912 61.2513 7.08912C62.9167 7.1073 64.247 5.69281 64.247 3.94269C64.247 2.19257 62.9167 0.796264 61.2513 0.796264H61.2354Z" fill="white"/>
<path fill-rule="evenodd" clip-rule="evenodd" d="M4.30069 70.0701L3.47928 74.225H0.444816L4.23003 56.9391H7.94901L11.3874 74.225H8.33712L7.53389 70.0701H4.30069ZM7.2393 67.6305L6.60726 63.8866C6.48965 63.1826 6.3507 62.2202 6.21955 61.3117C6.14967 60.8277 6.08199 60.3589 6.02094 59.9528H5.95236C5.90769 60.2375 5.85873 60.5547 5.80749 60.8868C5.64691 61.9275 5.46387 63.1138 5.32032 63.8957L4.64022 67.6305H7.2393Z" fill="white"/>
<path fill-rule="evenodd" clip-rule="evenodd" d="M21.4086 70.6403V56.4803H18.2947V62.7937H18.2422C17.8884 62.0245 17.1857 61.4927 16.0995 61.4927C14.0231 61.4927 12.1182 63.6195 12.1182 67.9931C12.1182 71.5825 13.3958 74.4252 15.9717 74.4252C17.147 74.4252 18.1302 73.6703 18.582 72.7824H18.6459L18.8215 74.2224H21.5115C21.4658 73.1432 21.4086 71.7625 21.4086 70.6403ZM18.2484 65.7572C18.2941 66.0038 18.2941 66.2732 18.2941 66.5036V69.8095C18.2941 70.1267 18.2575 70.3982 18.1868 70.6011C17.8969 71.6189 17.3631 71.8563 16.8999 71.8563C15.8868 71.8563 15.2298 70.4758 15.2298 68.0506C15.2298 65.9399 15.6906 64.1352 16.9433 64.1352C17.6735 64.1352 18.1276 64.9039 18.2484 65.7572Z" fill="white"/>
<path fill-rule="evenodd" clip-rule="evenodd" d="M27.836 74.4255C24.9657 74.4255 23.1655 72.121 23.1655 67.996C23.1655 63.4941 25.4767 61.493 27.909 61.493C30.7406 61.493 32.5157 63.9097 32.5157 67.923C32.5157 73.0796 29.7345 74.4255 27.8612 74.4255H27.836ZM27.8953 72.0366C29.084 72.0366 29.3783 69.796 29.3783 67.9409C29.3783 66.1773 29.084 63.8793 27.843 63.8793C26.5286 63.8793 26.2524 66.1773 26.2524 67.9409C26.2524 70.0698 26.5992 72.0366 27.8677 72.0366H27.8953Z" fill="white"/>
<path fill-rule="evenodd" clip-rule="evenodd" d="M37.3709 56.4803H34.2564V70.6403C34.2564 71.7625 34.1975 73.1843 34.1517 74.2224H36.8259L36.9992 72.7234H37.0649C37.7174 73.9436 38.4407 74.4252 39.5268 74.4252C41.8063 74.4252 43.5656 72.0641 43.5656 67.6534C43.5656 64.1625 42.3859 61.4927 40.038 61.4927C38.8516 61.4927 38.0346 62.0427 37.421 63.0057H37.3709V56.4803ZM37.4946 70.5509C37.4283 70.355 37.3712 70.0628 37.3712 69.7503V66.2524C37.3712 66.0196 37.4281 65.6822 37.4875 65.4655C37.6587 64.7766 38.1562 64.1352 38.7469 64.1352C39.938 64.1352 40.4516 65.6658 40.4516 67.8882C40.4516 70.3296 39.9656 71.8563 38.7607 71.8563C38.3365 71.8563 37.8071 71.5986 37.4946 70.5509Z" fill="white"/>
<path fill-rule="evenodd" clip-rule="evenodd" d="M47.8896 68.9681C47.9262 71.2336 49.1173 71.9709 50.5957 71.9709C51.5332 71.9709 52.3364 71.7628 52.9298 71.5396L53.3496 73.7802C52.5235 74.1358 51.248 74.3595 50.0249 74.3595C46.6824 74.3595 44.8569 72.0753 44.8569 68.174C44.8569 63.9871 46.9744 61.4725 49.7397 61.4725C52.4115 61.4725 53.8922 63.6949 53.8922 67.3227C53.8922 68.1532 53.8579 68.621 53.8031 68.9858L47.8896 68.9681ZM51.0292 66.766C51.0453 65.007 50.5294 63.7744 49.5415 63.7744C48.4143 63.7744 47.935 65.4245 47.901 66.766H51.0292Z" fill="white"/>
<path d="M26.9556 17.5755L18.2418 38.1016H27.5349L31.3318 47.6957H39.6483L26.9556 17.5755Z" fill="white"/>
</svg>
